src/objects/science/1F4E1.svg

<?xml version="1.0" encoding="UTF-8"?>
<svg id="emoji" xmlns="http://www.w3.org/2000/svg" viewBox="0 0 72 72">
  <g id="grid">
    <path d="m68,4v64H4V4h64M72,0H0v72h72V0Z" fill="#b3b3b3"/>
    <path d="m12.923,10.9583h46.1539c1.0621,0,1.9231.861,1.9231,1.9231h0v46.1538c0,1.0621-.861,1.9231-1.9231,1.9231H12.9231c-1.0621,0-1.9231-.861-1.9231-1.9231h0V12.8813c0-1.062.861-1.923,1.923-1.923h0Z" fill="none" stroke="#00a5ff" stroke-miterlimit="10" stroke-width=".1"/>
    <rect x="16" y="4" width="40" height="64" rx="2.2537" ry="2.2537" fill="none" stroke="#00a5ff" stroke-miterlimit="10" stroke-width=".1"/>
    <rect x="4" y="16" width="64" height="40" rx="2.2537" ry="2.2537" fill="none" stroke="#00a5ff" stroke-miterlimit="10" stroke-width=".1"/>
    <circle cx="36" cy="36" r="29" fill="none" stroke="#00a5ff" stroke-miterlimit="10" stroke-width=".1"/>
  </g>
  <g id="color">
    <path d="m14.276,31.5192h3.2117l-.0234-1.1721-3.2401.0106c-.0434.3279.0085.8336.0519,1.1615Z" fill="#d0cfce"/>
    <polygon points="52.4477 59.999 54.9527 38.197 51.7041 38.197 48.8004 59.999 52.4477 59.999" fill="#9b9b9a"/>
    <path d="m47.6445,29.3771c.0569.5118.0938,1.0293.0938,1.556,0-.5267-.0369-1.0442-.0938-1.556Z" fill="#d0cfce"/>
    <path d="m48.8004,29.3771c-.4111-3.6953-2.5001-7.7075-5.8095-10.2492-2.6571-2.0407-6.2527-2.9817-9.2531-3.1947l.2712,26.9989c.2486.6495-.3346,2.4231.6547,2.6473,2.0178.4572,6.3562-1.3102,8.0762-2.6473,1.7857-1.3882,3.8837-3.5192,4.9515-6.3317.9164-2.4136.9159-5.4874,1.109-7.2233Z" fill="#d0cfce"/>
    <path d="m34.7383,41.7864l-1.2595.1084.259,4.0384c2.2672-.1608,8.4311-2.5655,10.2455-4.0463,2.9667-2.4215,4.7545-5.8777,4.7545-10.9537,0-.5267,0-1.7478-1.0933-1.5561-.7412,6.6622-6.1689,11.9313-12.9062,12.4093Z" fill="#9b9b9a"/>
    <path d="m52.7421,27.7526l-3.4453-.0401c-.499.189-.6415,5.5357-.0034,6.2814h3.0961s2.7955-.5886,2.4704-3.7291c-.3754-2.5138-1.5545-2.5138-2.1178-2.5122Z" fill="#3f3f3f"/>
  </g>
  <g id="line">
    <path d="m33.7378,45.9332c8.2843,0,15-6.7157,15-15s-6.7157-15-15-15v30Z" fill="none" stroke="#000" stroke-linecap="round" stroke-linejoin="round" stroke-width="2"/>
    <path d="m52.6418,27.9625c1.6565.0351,2.9709,1.4064,2.9358,3.0629-.0351,1.6565-1.4064,2.9709-3.0629,2.9358" fill="none" stroke="#000" stroke-linecap="round" stroke-linejoin="round" stroke-width="2"/>
    <path d="m18.4115,32.4905h-4.3872s-.7404.0215-.7404-1.5303.7404-1.5305.7404-1.5305h4.3872v3.0608Z" fill="none" stroke="#000" stroke-linecap="round" stroke-linejoin="round" stroke-width="2"/>
    <line x1="24.1309" y1="30.9332" x2="33.7378" y2="30.9332" fill="none" stroke="#000" stroke-linecap="round" stroke-linejoin="round" stroke-width="2"/>
    <line x1="22.1212" y1="27.6488" x2="33.7378" y2="15.9332" fill="none" stroke="#000" stroke-linecap="round" stroke-linejoin="round" stroke-width="2"/>
    <line x1="22.1564" y1="34.2741" x2="33.7378" y2="45.9332" fill="none" stroke="#000" stroke-linecap="round" stroke-linejoin="round" stroke-width="2"/>
    <line x1="40.2378" y1="59.999" x2="58.8314" y2="59.999" fill="none" stroke="#000" stroke-linecap="round" stroke-linejoin="round" stroke-width="2"/>
    <polyline points="48.8004 59.999 51.7041 38.197 54.9527 38.197 52.049 59.999" fill="none" stroke="#000" stroke-linecap="round" stroke-linejoin="round" stroke-width="2"/>
  </g>
</svg>

<svg id="emoji" viewBox="0 0 72 72" xmlns="http://www.w3.org/2000/svg">
  <g id="grid">
    <path fill="#b3b3b3" d="M68,4V68H4V4H68m4-4H0V72H72V0Z"/>
    <path fill="none" stroke="#00a5ff" stroke-miterlimit="10" stroke-width="0.1" d="M12.923,10.9583H59.0769A1.9231,1.9231,0,0,1,61,12.8814V59.0352a1.9231,1.9231,0,0,1-1.9231,1.9231H12.9231A1.9231,1.9231,0,0,1,11,59.0352V12.8813A1.923,1.923,0,0,1,12.923,10.9583Z"/>
    <rect x="16" y="4" rx="2.2537" width="40" height="64" fill="none" stroke="#00a5ff" stroke-miterlimit="10" stroke-width="0.1"/>
    <rect x="16" y="4" rx="2.2537" width="40" height="64" transform="translate(72) rotate(90)" fill="none" stroke="#00a5ff" stroke-miterlimit="10" stroke-width="0.1"/>
    <circle cx="36" cy="36" r="29" fill="none" stroke="#00a5ff" stroke-miterlimit="10" stroke-width="0.1"/>
  </g>
  <g id="color">
    <path fill="#D0CFCE" stroke="none" d="M12.8641,32.4905l5.261-0.0016v-3.409h-5.261c-0.0434,0.3279-0.0884,0.8679-0.0884,1.7047 C12.7757,31.6226,12.8207,32.1626,12.8641,32.4905z"/>
    <path fill="#D0CFCE" stroke="none" d="M12.3246,31.8669c-0.0134,0-0.0284,0-0.0435,0.0009h0.0869 C12.3547,31.8669,12.3396,31.8669,12.3246,31.8669z"/>
    <polygon fill="#9b9b9a" stroke="none" points="52.4477,59.999 54.9527,38.197 51.7041,38.197 48.8004,59.999"/>
    <path fill="#D0CFCE" stroke="none" d="M47.6445,29.3771c0.0569,0.5118,0.0938,1.0293,0.0938,1.556 C47.7383,30.4064,47.7014,29.8889,47.6445,29.3771z"/>
    <path fill="#D0CFCE" stroke="none" d="M48.8004,29.3771c-0.4111-3.6953-2.5001-7.7075-5.8095-10.2492 c-2.6571-2.0407-6.2527-2.9817-9.2531-3.1947l0.2712,26.9989c0.2486,0.6495-0.3346,2.4231,0.6547,2.6473 c2.0178,0.4572,6.3562-1.3102,8.0762-2.6473c1.7857-1.3882,3.8837-3.5192,4.9515-6.3317 C48.6078,34.1868,48.6073,31.113,48.8004,29.3771z"/>
    <path fill="#9b9b9a" stroke="none" d="M34.7383,41.7864l-1.2595,0.1084l0.259,4.0384c2.2672-0.1608,8.4311-2.5655,10.2455-4.0463 c2.9667-2.4215,4.7545-5.8777,4.7545-10.9537c0-0.5267,0-1.7478-1.0933-1.5561C46.9033,36.0393,41.4756,41.3084,34.7383,41.7864z"/>
    <path fill="#3F3F3F" stroke="none" d="M52.6547,26.9641l-3.4453-0.0401c-0.499,0.189-0.3108,3.3007-0.4716,4.0092 c-0.4838,2.1318-0.1699,3.2765,0.4682,4.0222h3.0961l0.0043-0.0363c-0.4569-0.1003,3.597-1.2223,3.2719-4.3628 C55.2532,27.4159,52.0745,26.9842,52.6547,26.9641z"/>
    <path fill="#3F3F3F" stroke="none" d="M52.6915,26.9658v-0.0013l-0.0117-0.0001C52.6838,26.9645,52.6875,26.9657,52.6915,26.9658z"/>
  </g>
  <g id="hair"/>
  <g id="skin"/>
  <g id="skin-shadow"/>
  <g id="line">
    <path fill="none" stroke="#000000" stroke-linecap="round" stroke-linejoin="round" stroke-miterlimit="10" stroke-width="2" d="M33.7378,45.9332c8.2843,0,15-6.7157,15-15c0-8.2842-6.7157-15-15-15V45.9332z"/>
    <path fill="none" stroke="#000000" stroke-linecap="round" stroke-linejoin="round" stroke-miterlimit="10" stroke-width="2" d="M52.6418,27.9625c1.6565,0.0351,2.9709,1.4064,2.9358,3.0629c-0.0351,1.6565-1.4064,2.9709-3.0629,2.9358"/>
    <path fill="none" stroke="#000000" stroke-linecap="round" stroke-linejoin="round" stroke-miterlimit="10" stroke-width="2" d="M17.9115,32.4905h-4.3872c0,0-0.7404,0.0215-0.7404-1.5303c0-1.5519,0.7404-1.5305,0.7404-1.5305h4.3872V32.4905z"/>
    <line x1="24.1309" x2="33.7378" y1="30.9332" y2="30.9332" fill="none" stroke="#000000" stroke-linecap="round" stroke-linejoin="round" stroke-miterlimit="10" stroke-width="2"/>
    <line x1="22.1212" x2="33.7378" y1="27.6488" y2="15.9332" fill="none" stroke="#000000" stroke-linecap="round" stroke-linejoin="round" stroke-miterlimit="10" stroke-width="2"/>
    <line x1="22.1564" x2="33.7378" y1="34.2741" y2="45.9332" fill="none" stroke="#000000" stroke-linecap="round" stroke-linejoin="round" stroke-miterlimit="10" stroke-width="2"/>
    <line x1="40.2378" x2="58.8314" y1="59.999" y2="59.999" fill="none" stroke="#000000" stroke-linecap="round" stroke-linejoin="round" stroke-miterlimit="10" stroke-width="2"/>
    <polyline fill="none" stroke="#000000" stroke-linecap="round" stroke-linejoin="round" stroke-miterlimit="10" stroke-width="2" points="48.8004,59.999 51.7041,38.197 54.9527,38.197 52.049,59.999"/>
  </g>
</svg>
